src/assets/question.svg

<?xml version="1.0" encoding="utf-8"?>
<svg width="800px" height="800px" viewBox="0 0 15 15" fill="none" xmlns="http://www.w3.org/2000/svg">
  <path
    fill-rule="evenodd"
    clip-rule="evenodd"
    d="M0.877075 7.49972C0.877075 3.84204 3.84222 0.876892 7.49991 0.876892C11.1576 0.876892 14.1227 3.84204 14.1227 7.49972C14.1227 11.1574 11.1576 14.1226 7.49991 14.1226C3.84222 14.1226 0.877075 11.1574 0.877075 7.49972ZM7.49991 1.82689C4.36689 1.82689 1.82708 4.36671 1.82708 7.49972C1.82708 10.6327 4.36689 13.1726 7.49991 13.1726C10.6329 13.1726 13.1727 10.6327 13.1727 7.49972C13.1727 4.36671 10.6329 1.82689 7.49991 1.82689ZM8.24993 10.5C8.24993 10.9142 7.91414 11.25 7.49993 11.25C7.08571 11.25 6.74993 10.9142 6.74993 10.5C6.74993 10.0858 7.08571 9.75 7.49993 9.75C7.91414 9.75 8.24993 10.0858 8.24993 10.5ZM6.05003 6.25C6.05003 5.57211 6.63511 4.925 7.50003 4.925C8.36496 4.925 8.95003 5.57211 8.95003 6.25C8.95003 6.74118 8.68002 6.99212 8.21447 7.27494C8.16251 7.30651 8.10258 7.34131 8.03847 7.37854L8.03841 7.37858C7.85521 7.48497 7.63788 7.61119 7.47449 7.73849C7.23214 7.92732 6.95003 8.23198 6.95003 8.7C6.95004 9.00376 7.19628 9.25 7.50004 9.25C7.8024 9.25 8.04778 9.00601 8.05002 8.70417L8.05056 8.7033C8.05924 8.6896 8.08493 8.65735 8.15058 8.6062C8.25207 8.52712 8.36508 8.46163 8.51567 8.37436L8.51571 8.37433C8.59422 8.32883 8.68296 8.27741 8.78559 8.21506C9.32004 7.89038 10.05 7.35382 10.05 6.25C10.05 4.92789 8.93511 3.825 7.50003 3.825C6.06496 3.825 4.95003 4.92789 4.95003 6.25C4.95003 6.55376 5.19628 6.8 5.50003 6.8C5.80379 6.8 6.05003 6.55376 6.05003 6.25Z"
    fill="currentColor"
  />
</svg>

<svg xmlns="http://www.w3.org/2000/svg" width="800" height="800" fill="none" viewBox="0 0 15 15"><path fill="currentColor" fill-rule="evenodd" d="M.877 7.5a6.623 6.623 0 1 1 13.246 0 6.623 6.623 0 0 1-13.246 0ZM7.5 1.827a5.673 5.673 0 1 0 0 11.346 5.673 5.673 0 0 0 0-11.346Zm.75 8.673a.75.75 0 1 1-1.5 0 .75.75 0 0 1 1.5 0Zm-2.2-4.25c0-.678.585-1.325 1.45-1.325s1.45.647 1.45 1.325c0 .491-.27.742-.736 1.025-.051.032-.111.066-.176.104a5.28 5.28 0 0 0-.564.36c-.242.188-.524.493-.524.961a.55.55 0 0 0 1.1.004.443.443 0 0 1 .1-.098c.102-.079.215-.144.366-.232.078-.045.167-.097.27-.159.534-.325 1.264-.861 1.264-1.965 0-1.322-1.115-2.425-2.55-2.425-1.435 0-2.55 1.103-2.55 2.425a.55.55 0 0 0 1.1 0Z" clip-rule="evenodd"/></svg>
